packages/core/src/svgs/tokens/mono/DMT.svg

<svg width="24" height="24" viewBox="0 0 24 24" fill="none" xmlns="http://www.w3.org/2000/svg">
<path d="M4.67901 2.2831C4.97397 2.09437 5.26893 2 5.56328 2H15.3901C15.9801 2 16.5693 2.2831 16.8643 2.84864L21.7775 11.1502C22.0724 11.7156 22.0724 12.2812 21.7775 12.8474L16.8643 21.1488C16.5693 21.7145 15.9801 21.9975 15.3901 21.9975H5.56328C5.26893 21.9975 4.97397 21.9031 4.67901 21.7145C4.48279 21.5256 4.18782 21.3369 4.08909 21.1488L2.22244 18.0355C1.92748 17.5643 1.92748 16.9981 2.22244 16.6207L4.38467 12.8474C4.58089 12.565 4.58089 12.2818 4.58089 11.9988C4.58089 11.7156 4.48279 11.4326 4.28594 11.1502L2.22244 7.37683C1.92748 6.90501 1.92748 6.33946 2.22244 5.96201L4.0897 2.84864C4.18782 2.66054 4.38404 2.37746 4.67901 2.2831ZM7.7255 16.9037C7.7255 16.9037 8.25357 16.9981 8.54848 16.9981H12.5405C13.1298 16.9981 13.7198 16.8094 14.0146 16.2432L16.0782 12.8474C16.3732 12.2818 16.3732 11.7164 16.0782 11.1502L14.0146 7.65991C13.7198 7.09311 13.1242 6.99937 12.5343 6.99937H7.7255L10.1815 11.1502C10.477 11.7156 10.477 12.2812 10.1815 12.8474L7.7255 16.9037Z" fill="white"/>
<path d="M5.73819 2H5.94003C5.13701 2 5.27513 2.55055 5.33761 2.66054L7.94541 6.99937L10.4538 11.1502C10.755 11.7156 10.755 12.2812 10.4538 12.8474L7.94541 16.9981C7.94541 16.9981 5.8388 20.4883 5.33698 21.2426C5.33698 21.2426 4.93578 21.9975 5.93941 21.9975H15.5707H5.73882C5.6382 21.9975 5.11514 22.0418 4.71394 21.7588C4.48296 21.5962 4.27686 21.4008 4.10215 21.1789L2.22737 18.0355C1.92616 17.5643 1.92616 16.9981 2.22737 16.6207L4.39898 12.8311C4.52147 12.6306 4.58271 12.2807 4.58271 11.9975C4.58271 11.8356 4.47335 11.5125 4.29025 11.1589L2.23487 7.38808C1.93366 6.91626 1.93366 6.35071 2.23487 5.97326L4.13589 2.76553C4.30086 2.51744 4.3921 2.39058 4.76206 2.1831C5.07639 2.00688 5.43635 2 5.73819 2Z" fill="white"/>
</svg>

<svg xmlns="http://www.w3.org/2000/svg" width="24" height="24" fill="none" viewBox="0 0 24 24">
    <path fill="#fff" d="M4.679 2.283Q5.122 2 5.563 2h9.827c.59 0 1.18.283 1.474.849l4.913 8.301q.442.849 0 1.697l-4.913 8.302c-.295.566-.884.848-1.474.848H5.563q-.441 0-.884-.282c-.196-.19-.491-.378-.59-.566l-1.867-3.114c-.295-.47-.295-1.037 0-1.414l2.163-3.774c.196-.282.196-.565.196-.848q0-.425-.295-.849L2.222 7.377c-.295-.472-.295-1.038 0-1.415L4.09 2.849c.098-.188.294-.472.589-.566m3.047 14.62s.528.095.822.095h3.992c.59 0 1.18-.189 1.475-.755l2.063-3.396q.443-.847 0-1.697l-2.063-3.49c-.295-.567-.89-.66-1.48-.66h-4.81l2.457 4.15q.442.849 0 1.697z"/>
    <path fill="#fff" d="M5.738 2h.202c-.803 0-.665.55-.602.66L7.945 7l2.509 4.15q.451.849 0 1.697l-2.509 4.151s-2.106 3.49-2.608 4.245c0 0-.401.755.602.755h9.632-9.832c-.1 0-.624.044-1.025-.24a3 3 0 0 1-.612-.58l-1.875-3.143c-.3-.47-.3-1.037 0-1.414L4.4 12.83c.122-.2.184-.55.184-.833 0-.162-.11-.486-.293-.84l-2.055-3.77c-.301-.472-.301-1.037 0-1.415l1.9-3.207c.166-.249.257-.375.627-.583.314-.176.674-.183.976-.183"/>
</svg>
